src/assets/whatsup.svg

<svg width="50" height="50" viewBox="0 0 50 50" xmlns="http://www.w3.org/2000/svg"> <rect width="50" height="50" rx="25" fill="#000"/> <path d="m25 15c5.523 0 10 4.477 10 10s-4.477 10-10 10c-1.7672 0.0028-3.5033-0.4648-5.03-1.355l-4.966 1.355 1.352-4.968c-0.8909-1.5271-1.3589-3.264-1.356-5.032 0-5.523 4.477-10 10-10zm-3.408 5.3-0.2 8e-3c-0.1295 0.0079-0.256 0.0419-0.372 0.1-0.1085 0.0614-0.2075 0.1382-0.294 0.228-0.12 0.113-0.188 0.211-0.261 0.306-0.3699 0.4809-0.569 1.0713-0.566 1.678 2e-3 0.49 0.13 0.967 0.33 1.413 0.409 0.902 1.082 1.857 1.97 2.742 0.214 0.213 0.424 0.427 0.65 0.626 1.1034 0.9715 2.4183 1.672 3.84 2.046l0.568 0.087c0.185 0.01 0.37-4e-3 0.556-0.013 0.2912-0.015 0.5756-0.0939 0.833-0.231 0.131-0.0675 0.2588-0.1409 0.383-0.22 0 0 0.043-0.028 0.125-0.09 0.135-0.1 0.218-0.171 0.33-0.288 0.083-0.086 0.155-0.187 0.21-0.302 0.078-0.163 0.156-0.474 0.188-0.733 0.024-0.198 0.017-0.306 0.014-0.373-4e-3 -0.107-0.093-0.218-0.19-0.265l-0.582-0.261s-0.87-0.379-1.402-0.621c-0.0557-0.0243-0.1153-0.0382-0.176-0.041-0.0684-7e-3 -0.1375 7e-4 -0.2027 0.0226s-0.125 0.0575-0.1753 0.1044c-5e-3 -2e-3 -0.072 0.055-0.795 0.931-0.0415 0.0558-0.0987 0.0979-0.1642 0.121-0.0655 0.0232-0.1365 0.0263-0.2038 9e-3 -0.0651-0.0175-0.129-0.0395-0.191-0.066-0.124-0.052-0.167-0.072-0.252-0.108-0.5739-0.2505-1.1053-0.5889-1.575-1.003-0.126-0.11-0.243-0.23-0.363-0.346-0.3934-0.3768-0.7363-0.803-1.02-1.268l-0.059-0.095c-0.0424-0.0638-0.0766-0.1327-0.102-0.205-0.038-0.147 0.061-0.265 0.061-0.265s0.243-0.266 0.356-0.41c0.11-0.14 0.203-0.276 0.263-0.373 0.118-0.19 0.155-0.385 0.093-0.536-0.28-0.684-0.57-1.365-0.868-2.041-0.059-0.134-0.234-0.23-0.393-0.249-0.054-6e-3 -0.108-0.012-0.162-0.016-0.1343-0.0067-0.2689-0.0053-0.403 4e-3l0.202-7e-3z" fill="#fff"/>
</svg>

<svg width="50" height="50" viewBox="0 0 50 50" fill="none" xmlns="http://www.w3.org/2000/svg">
<rect width="50" height="50" rx="25" fill="#45C179"/>
<path d="M25 15C30.523 15 35 19.477 35 25C35 30.523 30.523 35 25 35C23.2328 35.0028 21.4967 34.5352 19.97 33.645L15.004 35L16.356 30.032C15.4651 28.5049 14.9971 26.768 15 25C15 19.477 19.477 15 25 15ZM21.592 20.3L21.392 20.308C21.2625 20.3159 21.136 20.3499 21.02 20.408C20.9115 20.4694 20.8125 20.5462 20.726 20.636C20.606 20.749 20.538 20.847 20.465 20.942C20.0951 21.4229 19.896 22.0133 19.899 22.62C19.901 23.11 20.029 23.587 20.229 24.033C20.638 24.935 21.311 25.89 22.199 26.775C22.413 26.988 22.623 27.202 22.849 27.401C23.9524 28.3725 25.2673 29.073 26.689 29.447L27.257 29.534C27.442 29.544 27.627 29.53 27.813 29.521C28.1042 29.506 28.3886 29.4271 28.646 29.29C28.777 29.2225 28.9048 29.1491 29.029 29.07C29.029 29.07 29.072 29.042 29.154 28.98C29.289 28.88 29.372 28.809 29.484 28.692C29.567 28.606 29.639 28.505 29.694 28.39C29.772 28.227 29.85 27.916 29.882 27.657C29.906 27.459 29.899 27.351 29.896 27.284C29.892 27.177 29.803 27.066 29.706 27.019L29.124 26.758C29.124 26.758 28.254 26.379 27.722 26.137C27.6663 26.1127 27.6067 26.0988 27.546 26.096C27.4776 26.089 27.4085 26.0967 27.3433 26.1186C27.2781 26.1405 27.2183 26.1761 27.168 26.223C27.163 26.221 27.096 26.278 26.373 27.154C26.3315 27.2098 26.2743 27.2519 26.2088 27.275C26.1433 27.2982 26.0723 27.3013 26.005 27.284C25.9399 27.2665 25.876 27.2445 25.814 27.218C25.69 27.166 25.647 27.146 25.562 27.11C24.9881 26.8595 24.4567 26.5211 23.987 26.107C23.861 25.997 23.744 25.877 23.624 25.761C23.2306 25.3842 22.8877 24.958 22.604 24.493L22.545 24.398C22.5026 24.3342 22.4684 24.2653 22.443 24.193C22.405 24.046 22.504 23.928 22.504 23.928C22.504 23.928 22.747 23.662 22.86 23.518C22.97 23.378 23.063 23.242 23.123 23.145C23.241 22.955 23.278 22.76 23.216 22.609C22.936 21.925 22.646 21.244 22.348 20.568C22.289 20.434 22.114 20.338 21.955 20.319C21.901 20.313 21.847 20.307 21.793 20.303C21.6587 20.2963 21.5241 20.2977 21.39 20.307L21.592 20.3Z" fill="white"/>
</svg>
